papirus/22x22/apps/multimedia-player.svg

<svg height="22" width="22" xmlns="http://www.w3.org/2000/svg" xmlns:xlink="http://www.w3.org/1999/xlink"><radialGradient id="a" cx="19.063" cy="8.4179001" gradientTransform="matrix(.51715 0 0 .39731 -1.08624 2.4377)" gradientUnits="userSpaceOnUse" r="11"><stop offset="0" stop-color="#484848"/><stop offset="1" stop-color="#333"/></radialGradient><rect fill="#4a4a4a" height="20" rx="1" transform="scale(-1 1)" width="16" x="-19" y="1"/><path d="m6.25 4.2499499h9.5v5.5h-9.5z" style="fill-rule:evenodd;stroke:#363636;stroke-width:.49987;stroke-linecap:round;stroke-linejoin:round;stroke-miterlimit:3.42860007;fill:url(#a)"/><path d="m9 13.5v6l5.99995-3-5.3995186-2.6998z" opacity=".2"/><path d="m308-117v12l11-6-9.8992-5.3996z" fill="#19c0f0" opacity=".5" transform="matrix(.54545 0 0 .5 -158.9986 71.5)"/><path d="m4 1c-.554 0-1 .446-1 1v .5c0-.554.446-1 1-1h14c .554 0 1 .446 1 1v-.5c0-.554-.446-1-1-1z" fill="#fff" opacity=".1"/><path d="m3 19.5v.5c0 .554.446 1 1 1h14c .554 0 1-.446 1-1v-.5c0 .554-.446 1-1 1h-14c-.554 0-1-.446-1-1z" opacity=".3"/></svg>

<?xml version="1.0" encoding="UTF-8" standalone="no"?>
<!-- Created with Inkscape (http://www.inkscape.org/) -->

<svg
   xmlns:dc="http://purl.org/dc/elements/1.1/"
   xmlns:cc="http://creativecommons.org/ns#"
   xmlns:rdf="http://www.w3.org/1999/02/22-rdf-syntax-ns#"
   xmlns:svg="http://www.w3.org/2000/svg"
   xmlns="http://www.w3.org/2000/svg"
   xmlns:sodipodi="http://sodipodi.sourceforge.net/DTD/sodipodi-0.dtd"
   xmlns:inkscape="http://www.inkscape.org/namespaces/inkscape"
   id="svg2817"
   height="22"
   width="22"
   version="1.0"
   inkscape:version="0.91 r13725"
   sodipodi:docname="multimedia-player.svg">
  <sodipodi:namedview
     pagecolor="#ffffff"
     bordercolor="#666666"
     borderopacity="1"
     objecttolerance="10"
     gridtolerance="10"
     guidetolerance="10"
     inkscape:pageopacity="0"
     inkscape:pageshadow="2"
     inkscape:window-width="1600"
     inkscape:window-height="849"
     id="namedview21"
     showgrid="false"
     inkscape:zoom="19.88"
     inkscape:cx="0.98874296"
     inkscape:cy="13.924769"
     inkscape:window-x="0"
     inkscape:window-y="0"
     inkscape:window-maximized="1"
     inkscape:current-layer="svg2817" />
  <metadata
     id="metadata57">
    <rdf:RDF>
      <cc:Work
         rdf:about="">
        <dc:format>image/svg+xml</dc:format>
        <dc:type
           rdf:resource="http://purl.org/dc/dcmitype/StillImage" />
        <dc:title />
      </cc:Work>
    </rdf:RDF>
  </metadata>
  <defs
     id="defs2819">
    <radialGradient
       id="radialGradient2429"
       gradientUnits="userSpaceOnUse"
       cy="8.4179001"
       cx="19.063"
       gradientTransform="matrix(0.51715,0,0,0.39731,-1.08624,2.4377)"
       r="11">
      <stop
         id="stop5750"
         stop-color="#484848"
         offset="0" />
      <stop
         id="stop5752"
         stop-color="#333"
         offset="1" />
    </radialGradient>
    <linearGradient
       id="linearGradient4721"
       y2="5.9236002"
       gradientUnits="userSpaceOnUse"
       y1="26.511999"
       gradientTransform="matrix(0.34375,0,0,0.333335,2.75,1.5)"
       x2="24.101999"
       x1="24.756001">
      <stop
         id="stop4725"
         stop-color="#fff"
         offset="0" />
      <stop
         id="stop4727"
         stop-color="#fff"
         stop-opacity="0"
         offset="1" />
    </linearGradient>
    <linearGradient
       id="linearGradient5746"
       y2="51.676998"
       gradientUnits="userSpaceOnUse"
       x2="24.639999"
       y1="3.4733"
       x1="23.931999"
       gradientTransform="matrix(0.5,0,0,0.5,-1,-0.5)">
      <stop
         id="stop5742"
         stop-color="#fff"
         offset="0" />
      <stop
         id="stop5744"
         stop-color="#fff"
         stop-opacity="0"
         offset="1" />
    </linearGradient>
  </defs>
  <rect
     style="fill:#4a4a4a"
     id="rect4203"
     ry="1"
     rx="1"
     transform="scale(-1,1)"
     height="20"
     width="16"
     y="1"
     x="-19" />
  <rect
     style="fill:url(#radialGradient2429);fill-rule:evenodd;stroke:#363636;stroke-width:0.49987;stroke-linecap:round;stroke-linejoin:round;stroke-miterlimit:3.42860007"
     id="rect4140"
     rx="0"
     ry="0"
     height="5.5"
     width="9.5"
     stroke-miterlimit="3.4286"
     y="4.2499499"
     x="6.25" />
  <path
     d="m 9,13.5 0,6 5.99995,-3 -5.3995186,-2.6998 z"
     id="path4160"
     inkscape:connector-curvature="0"
     style="opacity:0.2;fill:#000000;fill-opacity:1" />
  <g
     id="g5610"
     style="fill:#19c0f0;enable-background:new"
     transform="matrix(0.54545,0,0,0.5,7.36365,12)">
    <g
       style="fill:#19c0f0"
       id="layer12"
       transform="translate(-305,119)">
      <path
         style="opacity:0.5;fill:#19c0f0"
         inkscape:connector-curvature="0"
         id="path3807-1-1-9-38-4"
         d="m 308,-117 0,12 11,-6 -9.8992,-5.3996 z" />
    </g>
  </g>
  <path
     style="fill:#ffffff;fill-opacity:1;opacity:0.1"
     d="M 4 1 C 3.446 1 3 1.446 3 2 L 3 2.5 C 3 1.946 3.446 1.5 4 1.5 L 18 1.5 C 18.554 1.5 19 1.946 19 2.5 L 19 2 C 19 1.446 18.554 1 18 1 L 4 1 z "
     id="rect4165" />
  <path
     style="fill:#000000;fill-opacity:1;opacity:0.3"
     d="M 3 19.5 L 3 20 C 3 20.554 3.446 21 4 21 L 18 21 C 18.554 21 19 20.554 19 20 L 19 19.5 C 19 20.054 18.554 20.5 18 20.5 L 4 20.5 C 3.446 20.5 3 20.054 3 19.5 z "
     id="rect4170" />
</svg>
